dist/images/blob.svg

<svg id="visual" width="350" height="700" xmlns="http://www.w3.org/2000/svg" version="1.1"><path d="M83.2-84.3c28 29.1 56.4 56.7 57.7 85.6 1.3 28.9-24.6 59-52.6 73.6-28 14.6-58.1 13.6-90.9 16.2-32.8 2.6-68.1 8.8-96.1-5.8-28-14.6-48.7-49.9-50-86.6-1.2-36.6 16.8-74.6 44.8-103.8 28-29.1 66-49.5 98.7-44.3 32.8 5.2 60.4 35.9 88.4 65.1" fill="#a7d3ff" transform="translate(178.905 377.78)"/></svg>

<svg id="visual" viewBox="0 0 350 700" width="350" height="700" xmlns="http://www.w3.org/2000/svg" xmlns:xlink="http://www.w3.org/1999/xlink" version="1.1"><g transform="translate(178.9047931840043 377.7799899303304)"><path d="M83.2 -84.3C111.2 -55.2 139.6 -27.6 140.9 1.3C142.2 30.2 116.3 60.3 88.3 74.9C60.3 89.5 30.2 88.5 -2.6 91.1C-35.4 93.7 -70.7 99.9 -98.7 85.3C-126.7 70.7 -147.4 35.4 -148.7 -1.3C-149.9 -37.9 -131.9 -75.9 -103.9 -105.1C-75.9 -134.2 -37.9 -154.6 -5.2 -149.4C27.6 -144.2 55.2 -113.5 83.2 -84.3" fill="#a7d3ff"></path></g></svg>
